!!!!SEGMENT: pl-wumfc--n53446--001-013_moniuszko-stanislaw--hrabina-no-11-arja-wloska.krn
!!!cenid: 18xx:4100
!!!COM: Moniuszko, Stanisław
!!!COM-rismID: pe30008351
!!!CDT: 1819/05/05-1872/06/04
!!!CNT: Polish
!!!OPR: Hrabina
!!!OTL: No. 11. Arja włoska
!!!OMV: 013
!!!PDT:
!!!AGN:
!!!SMS-siglum: PL-Wumfc
!!!SMS-shelfmark: N53446
!!!SMS-shelfwork: 001-013 M
!!!SMS-variant:
!!!SMS-altvar:
!!!NIFC-rismSourceID: 1001165649
!!!NIFC-rismChildID: 1001165649
!!!NIFC-islandoraID: pl-wumfc:6884
!!!URL-pdf-islandora: https://repozytorium.nifc.pl/islandora/object/pl-wumfc%3A6884/datastream/PDF/view
!!!URL-scan: https://polish.musicsources.pl/pl/lokalizacje/galeria/druki-muzyczne/12579 @EN{Scan on Polish Music Sources Website} @PL{Skany w portalu Dziedzictwo Muzyki Polskiej w otwartym dostępie}
!!!ONB-nifc:
!!!AIN: 1 piano
!!!key: A
**kern	**kern	**dynam
*part1	*part1	*part1
*staff2	*staff1	*
*I"[Piano.]	*I"[Piano.]	*
*Ipiano	*Ipiano	*
*ICklav	*ICklav	*
*clefF4	*clefG2	*
*k[f#c#g#]	*k[f#c#g#]	*
*A:	*A:	*
*M4/4	*M4/4	*
*met(c)	*met(c)	*
=1	=1	=1
!!LO:TX:B:a:t=Moderato.
4A 4E 4AA\	4aa 4ee 4cc# 4a\	ff
8r	8r	.
(32c#\LLL	(32ccc#\LLL	.
32B\	32bb\	.
32A\	32aa\	.
32G#\JJJ	32gg#\JJJ	.
8A\L)	8aa\L)	.
8e'\	8ee'\	.
8c#'\	8cc#'\	.
8A'\J	8a'\J	.
=2	=2	=2
8E'\	8e'/	.
8r	8r	.
8c# 8A 8E\	8cc# 8a 8e/	.
8r	8r	.
8c# 8A 8C#\	8ee 8a 8e/	.
8r	8r	.
8A 8E 8AA\	8aa 8ee 8cc# 8a\	.
8r	8r	.
=3	=3	=3
*	*^	*
4D 4DD/	4b 4a 4f#/	4ryy	.
4d 4D\	8.b/L	4a 4f#\	.
.	16b/Jk	.	.
4d#X 4D#X\	4aaT/	4ff# 4b\	.
.	16qqgg#/LL	.	.
.	16qqaa/JJ	.	.
[4B 4BB\	8bb/L	4dd#X\	.
.	8aa/J	.	.
!!LO:LB:g=original
=4	=4	=4	=4
8B] 8E\	8gg#/	8ee\	.
8e\L	8eeL 8b 8g#\	8ryy	.
8B\	8ee 8b 8g#\	8ryy	.
8G#\J	8eeJ 8b 8g#\	8ryy	.
4E\	4ee 4b 4g#\	4ryy	.
4r	4r	4ryy	.
*	*v	*v	*
=5	=5	=5
4F# 4D 4AA 4FF#/	4dd 4a 4d/	sf
8r	8r	.
(32f#\LLL	(32ff#\LLL	.
32e\	32ee\	.
32d\	32dd\	.
32c#\JJJ	32cc#\JJJ	.
8d\)	8dd\)	.
8A'\L	8a'/L	.
8F#'\	8f#'/	.
8A'\J	8a'/J	.
=6	=6	=6
8D'\	8d'/	.
8r	8r	.
8B 8BB\	8ff# 8dd 8b 8f#\	.
8r	8r	.
8B 8BB\	8gg# 8ee 8dd 8g#\	.
8r	8r	.
8A 8AA\	8aa 8ee 8cc# 8a\	.
8r	8r	.
!!LO:LB:g=original
=7	=7	=7
4G# 4GG#/	4bb 4ee 4dd 4b\	.
8.eL 8.G#\	8.ddL 8.b\	.
16eJk 16G#\	16ddJk 16b\	.
4e 4A\	4cc# 4aTT\	.
.	16qqb/LL	.
.	16qqcc#/JJ	.
8AA/L	8eeL 8cc#\	.
8C#/J	8cc#J 8a\	.
=8	=8	=8
*^	*	*
4r	[2E\	(4.cc# 4.a/	.
(4d#X/	.	.	.
.	.	16ddnLL 16b\	.
.	.	16cc#JJ 16a\	.
8e/)	4E\]	8b 8g#/)	.
8r	.	8r	.
4dnT/	4r	4r	.
*v	*v	*	*
*clefG2	*	*
=9	=9	=9
8eL 8c#/	[2a/	p
8e 8c#/	.	.
8e 8c#/	.	.
8eJ 8c#/	.	.
8eL 8c#/	16a\LL]	.
.	16b\	.
8e 8c#/	16cc#\	.
.	16dd\JJ	.
8e 8c#/	16ee\LL	.
.	16ff#\	.
8eJ 8c#/	16gg#\	.
.	16aa\JJ	.
!!LO:LB:g=original
=10	=10	=10
*	*^	*
8f#L 8d/	(4aa/	2a\	.
8f# 8d/	.	.	.
8f# 8d/	4b/)	.	.
8f#J 8d/	.	.	.
8f#L 8d/	16b\LL	2ryy	.
.	16cc#\	.	.
8f# 8d/	16dd\	.	.
.	16ee\JJ	.	.
8f# 8d/	16ff#\LL	.	.
.	16gg#\	.	.
8f#J 8d/	16aa\	.	.
.	16bb\JJ	.	.
*	*v	*v	*
=11	=11	=11
8aL 8e/	8ccc#\	.
8a 8A/	(16eeeLL 16ccc#\	.
.	16dddJJ 16bb\	.
8a 8c#/	8ccc# 8aa\)	.
8aJ 8e/	(16ccc#LL 16aa\	.
.	16bbJJ 16ggn\	.
8a/	8aa 8ff#\)	.
8aL 8c# 8A'/	(16ccc#LL 16aa\	.
.	16bbJJ 16gg\	.
8a 8d 8B'/	16aaLL 16ff#\	.
.	16bb 16gg\	.
8aJ 8e 8c#'/	16aa 16ff#\	.
.	16ggJJ 16ee\	.
=12	=12	=12
8a 8f# 8d/	8ff# 8dd\)	.
*clefF4	*	*
8D\L	8r	.
8F#\	4.aa 4.ff# 4.a^^\	.
8A\J	.	.
8d\L	.	.
8A\	8ff#L 8dd 8a'\	.
8F#\	8aa 8ff# 8a'\	.
8D\J	8ff#J 8dd 8a'\	.
!!LO:LB:g=original
=13	=13	=13
*tremolo	*	*
8E\L	(4ee 4cc#\	.
8E\	.	.
8E\	8cc#L 8a\)	.
8E\J	(16ff#L 16dd\	.
.	16eeJJ 16cc#\)	.
*Xtremolo	*	*
8.E\L	8.eeL 8.cc#\	.
16E\K	16ddK 16b\	.
8.E\	8.cc# 8.a\	.
16E\Jk	16bJk 16e\	.
=14	=14	=14
4A^^\	4a 4c#^/	.
4E^^\	8e^/	.
.	16r	.
!	!LO:TX:i:a:t=dolce	!
.	16e/	.
4A 4AA^^\	(8c#/L	.
.	8e/	.
4r	8a/	.
.	8b/J)	.
=15	=15	=15
(1A	2cc# 2a/	p
.	16qqdd/LL	.
.	16qqcc#/	.
.	16qqb/	.
.	16qqcc#/JJ	.
.	4dd 4b\	.
.	4ee 4cc#\	.
=16	=16	=16
2D\)	(2ee#X 2cc#\	.
2r	4ff# 4dd\)	.
.	8r	.
.	8b\	.
!!LO:PB:g=original
=17	=17	=17
(1E	(2b 2g#/	.
.	16qqcc#/LL	.
.	16qqb/	.
.	16qqa/	.
.	16qqb/JJ	.
.	4cc# 4a/	.
.	4dd 4b\)	.
=18	=18	=18
*	*^	*
2A\)	[4dd#X/	(2b#X\	.
.	16dd#/LL]	.	.
.	16ee/	.	.
.	16ff#/	.	.
.	16ee/JJ	.	.
2r	4cc#/	4cc#\)	.
.	8r	4ryy	.
.	8ee\	.	.
*	*v	*v	*
=19	=19	=19
(8E\L	(2ee\	.
8e\)	.	.
8d 8B'\	.	.
8e'\J	.	.
(8E\L	4g#/)	.
8e\)	.	.
8d 8B'\	8r	.
8e'\J	8g#/	.
!!LO:LB:g=original
=20	=20	=20
(8E\L	([4a/	.
8e\)	.	.
8c# 8A'\	16a/LL]	.
.	16b/	.
8e'\J	16cc#/	.
.	16a/JJ	.
(8E\L	4e/)	.
8e\)	.	.
8c# 8A'\	8r	.
8e'\J	8ee\	.
=21	=21	=21
(8E\L	([4.gg#\	.
8e\)	.	.
8d 8B'\	.	.
8e'\J	32gg#\LLL]	.
.	32ff#\	.
.	32dd\	.
.	32b\JJJ	.
(8E\L	4g#/)	.
8e\)	.	.
8d 8B'\	8r	.
8e'\J	8g#/	.
=22	=22	=22
(8A\L	8a\L	.
8e\)	([8ee\J	.
8c# 8A'\	16ee\LL]	.
.	32dd\L	.
.	32cc#\	.
8e'\J	32b\	.
.	32a\	.
.	32g#\	.
.	32f#\JJJ)	.
8C#\L	8e/	.
8A\	8r	.
8E\	8.a/L	.
8A\J	.	.
.	16g#/Jk	.
!!LO:LB:g=original
=23	=23	=23
8AA'\L	[2f#/	p
8e 8c# 8A'\	.	.
8e 8c# 8A'\	.	.
8eJ 8c# 8A'\	.	.
8d#XL 8B 8A\	16f#/LL]	.
.	16g#/	.
8d# 8B 8A\	16a/	.
.	16b/JJ	.
8d# 8B 8A\	16cc#\LL	.
.	16dd#X\	.
8d#J 8B 8A\	16ee\	.
.	16ff#\JJ	.
=24	=24	=24
8d#XL 8B 8G#\	(4ff#\	.
8d# 8B 8G#\	.	.
8d# 8B 8G#\	[4g#/)	.
8d#J 8B 8G#\	.	.
8eL 8c# 8B 8G#\	16g#/LL]	.
.	16a/	.
8e 8c# 8B 8G#\	16b/	.
.	16cc#/JJ	.
8e 8c# 8B 8G#\	16dd#X\LL	.
.	16ee\	.
8eJ 8c# 8B 8G#\	16ff#\	.
.	16gg#\JJ	.
=25	=25	=25
8eL 8c# 8A 8F#\	8aa'\	.
8e 8c# 8A 8F#\	(16aa\LL	.
.	16gg#\JJ	.
8e 8c# 8A 8F#\	8ff#\)	.
8eJ 8c# 8A 8F#\	(16ff#\LL	.
.	16ee\JJ	.
8B\	8dd#X\)	.
8BL 8BB\	(16dd#LL 16b\	.
.	16cc#JJ 16a\	.
8B 8C#\	8b 8g#/)	.
8BJ 8D#X\	(16bLL 16g#/	.
.	16aJJ 16f#/	.
!!LO:LB:g=original
=26	=26	=26
*^	*^	*
!LO:N:vis=2	!	!	!	!
!LO:TX:t=P:problem:błędne wyświetlanie belki	!	!	!	!
(<16E/LL	2E\	4g# 4e/)	4ryy	.
16B/	.	.	.	.
16A#X/	.	.	.	.
16B/JJ	.	.	.	.
16c#/LL	.	8.r	8.ryy	.
16B/	.	.	.	.
16A#/	.	.	.	.
16B/JJ)	.	16b\	16ryy	.
(<16E/LL	4E\	(4ee^/	(4g#\	.
16B/	.	.	.	.
16A#/	.	.	.	.
16B/JJ)	.	.	.	.
(<16E/LL	4E\	8dd#X/L)	8f#\L)	.
16B/	.	.	.	.
16A#/	.	8ff#/J	8an\J	.
16B/JJ)	.	.	.	.
=27	=27	=27	=27	=27
!LO:N:vis=2	!	!	!	!
!LO:TX:t=P:problem:błędne wyświetlanie belki	!	!	!	!
(<16E/LL	2E\	4..ee/	2g#\	.
16B/	.	.	.	.
16A#X/	.	.	.	.
16B/JJ	.	.	.	.
16c#/LL	.	.	.	.
16B/	.	.	.	.
16A#/	.	.	.	.
16B/JJ)	.	16b/	.	.
(<16E/LL	4E\	(4eeTT/	(4g#\	.
16B/	.	.	.	.
16A#/	.	.	.	.
16B/JJ)	.	.	.	.
(<16E/LL	4E\	8dd#X/L)	8f#\L)	.
16B/	.	.	.	.
16A#/	.	8ff#/J	8an\J	.
16B/JJ)	.	.	.	.
*	*	*v	*v	*
!!LO:LB:g=original
=28	=28	=28	=28
8E\	2ryy	8ee 8g#\	.
*clefG2	*	*	*
8g#L 8e/	.	8r	.
.	.	8qff#/	.
8g# 8e/	.	16ee\LL	.
.	.	16dd#X\	.
8g#J 8e/	.	16ee\	.
.	.	16ff#\JJ	.
8r	2c#\	4.gg#\	.
8g#L 8e/	.	.	.
8g# 8e/	.	.	.
8e/J	.	8g#/	.
=29	=29	=29	=29
8r	2F#\	(8aL 8f#/	.
!	!	!LO:TUP:b	!
8c#/L	.	24bL 24g#/	.
.	.	24a 24f#/	.
.	.	24g#JJ 24e#X/	.
8c#/	.	8aL 8f#/	.
8c#/J	.	8bJ 8g#'/	.
8A'/L	2ryy	8cc#L 8a'/)	.
8A'/	.	8cc# 8b 8g#'/	.
8A'/	.	8cc# 8a 8f#'/	.
8A'/J	.	8cc#J 8g# 8en'/	.
*v	*v	*	*
*clefF4	*	*
=30	=30	=30
*ped	*	*
8BB'\L	(16dd#XLL 16f# 16d#X/	.
.	16cc#/	.
8D#X'\	16b/	.
.	16cc#/JJ	.
8F#'\	16dd#\LL	.
.	16ee\	.
8D#'\J	16ff#\	.
*Xped	*	*
.	16gg#\JJ	.
(8BB\L	8aa\L	.
8D#\)	8ff# 8b 8a\)	.
8F#'\	8dd# 8b 8a'\	.
8B'\J	8aJ 8f#'\	.
!!LO:PB:g=original
=31	=31	=31
8E\L	(16g#LL 16e/	.
.	16a/	.
8e\	16g#/	.
.	16f#/JJ	.
8B\	16g#\LL	.
.	16b\	.
8A\J	16ee\	.
.	16gg#\JJ	.
8G#\	4bb\)	.
(8BL 8BB\	.	.
8A#X 8AA#X\)	8r	.
8AnJ 8AAn'\	8b\	.
=32	=32	=32
8G# 8GG#/	8ee 8b 8e/	sf
8BL 8G#'\	8r	.
.	16qqff#/LL	.
.	16qqee/	.
.	16qqdd#X/JJ	.
8B 8G#'\	8.ee\L	.
8BJ 8G#'\	.	.
.	(16ff#\Jk	.
8C#/	16gg#\LL	sf
.	16ff#\	.
8eL 8c# 8G#'\	16ee\	.
.	16dd#y\JJ	.
8e 8c# 8G#'\	16cc#\LL	.
.	16b\	.
8eJ 8c# 8G#'\	16a\	.
.	16g#\JJ)	.
=33	=33	=33
8AA/	(16f#/LL	sf <
.	16g#/	.
8c#L 8A\	16f#/	.
.	16e#X/JJ	.
8c# 8A\	16f#\LL	.
.	16a\	.
8c#J 8A\	16cc#\	.
.	[16ff#\JJ	.
(8AL 8F#\	4.aa 4.ff#\]	[
8B 8G#\	.	>
8c#J 8A\)	.	.
8r	8gg# 8een\)	]]
!!LO:LB:g=original
=34	=34	=34
*	*^	*
8B\	8.ff#T/L	8.dd#X\L	.
8r	.	.	.
.	16ee/Jk	16cc#\Jk	.
4r	8.dd#t/L	8.b\L	.
.	16cc#/Jk	16a\Jk	.
2r	8.bT/L	8.g#\L	.
.	16a/Jk	16f#\Jk	.
.	8.g#t/L	8.e\L	.
.	16f#/Jk	16d#X\Jk	.
=35	=35	=35	=35
*^	*	*	*
8E/L	2EE\	4e/	4ryy	.
8E/	.	.	.	.
8E/	.	8r	8ryy	.
8E/J	.	8e/	8ryy	f
8E'/L	2EE\	(4ee (4ccn^/	[2e\	.
8E'/	.	.	.	.
8E'/	.	8ddnL 8b/))	.	.
8E'/J	.	8ccJ 8a/	.	.
=36	=36	=36	=36	=36
8E 8EE/	2ryy	4.b 4.g#/	4e\]	.
(8E\L	.	.	.	.
8Fn\	.	.	8r	.
8D#X\J)	.	8b 8g#/	4r	.
8E'/L	2EE\	(<8.ddnL 8.b/	.	>
8E'/	.	.	8ryy	.
.	.	16ccnK 16a/	.	.
8E'/	.	8b 8g#/)	4ryy	.
8E'/J	.	8aJ 8f#'/	.	]
*v	*v	*	*	*
*	*v	*v	*
!!LO:LB:g=original
=37	=37	=37
8E 8EE/	(16g#LL 16e/	.
.	16aJ 16f#/	.
!	!	!LO:HP:b=2
(8E\L	8bJ 8g#/)	<
!	!	!LO:HP:b=2
8Fn\	8.r	[ >
8D#X\J)	.	]
.	16e/	p
8E\L	(4ee 4ccn\	.
8E\	.	.
8E\	8ddnL 8b\)	.
8E\J	8ccJ 8a\	.
=38	=38	=38
*	*^	*
8E\	4b 4g#X/	4ryy	.
!	!	!	!LO:HP:b=2
(8E\L	.	.	<
8qGn/	.	.	.
!	!	!	!LO:HP:b=2
8Fn\	8b\L	8.ryy	[ >
8E\J)	16r	.	]
!	!LO:TX:t=P:problem:niezidentyfikowany znak	!	!
.	16b\Jk	16ryy	.
4r	8.dd/L	4a 4e\	.
.	16ccn/Jk	.	.
!	!LO:TUP:a:problem:klamra łukowa	!	!
4F\	12cc/L	4d#X\	.
.	12b/	.	.
.	12a/J	.	.
*	*v	*v	*
=39	=39	=39
*^	*	*
8E/L	(4E\	8g#L 8e/	.
8B/	.	8b/J	.
8Fn/	4F\	8r	.
8B/J	.	8a 8d#X/	.
8E/L	4E\	8g#L 8e/	.
8B/	.	8b/J	.
8F/	4F\	8r	.
8B/J	.	8a 8d#/	.
!!LO:LB:g=original
=40	=40	=40	=40
*	*	*^	*
8r	8E\)	(16g#/LL	16r	.
.	.	16a/JJ	16r	.
(16G#/LL	8rGG	4b/)	(>16e\LL	.
16B/JJ	.	.	16f#\JJ	.
8e\)	8rGG	.	8g#\)	.
(8E\	8ryy	(8e/	8ryy	.
!	!	!LO:TX:i:a:t=riten.	!	!
8A\L)	2ryy	8a/L)	2ryy	.
8Fn^\	.	8fn^/	.	.
8E^\	.	8e^/	.	.
8D#X^\J	.	8d#X^/J	.	.
*v	*v	*	*	*
*	*v	*v	*
=41	=41	=41
1E 1EE;<	4e/	.
.	[2.e/	.
.	8qqe/L]	.
.	8qqg#/	.
.	8qqb/	.
.	8qqee/	.
.	8qqgg#/	.
.	8qqee/	.
.	8qqb/	.
.	8qqg#/J	.
.	8qqe/L	.
.	8qqg#/	.
.	8qqb/	.
.	8qqee/	.
.	8qqbb/	.
.	8qqee/	.
.	8qqb/	.
.	8qqg#/J	.
.	8qqe/L	.
.	8qqg#/	.
.	8qqb/	.
.	8qqee/	.
.	8qqgg#/	.
.	8qqee/	.
.	8qqb/	.
.	8qqg#/J	.
.	8qqe/L	.
.	8qqg#/	.
.	8qqb/	.
.	8qqee/	.
.	8qqbb/	.
.	8qqee/	.
.	8qqb/	.
.	8qqg#/J	.
.	8qqe/L	.
.	8qqg#/	.
.	8qqb/	.
.	8qqee/	.
.	8qqgg#/	.
.	8qqee/	.
.	8qqb/	.
.	8qqg#/J	.
.	8qqe/L	.
.	8qqg#/	.
.	8qqb/	.
.	8qqee/	.
.	8qqbb/	.
.	8qqgg#/	.
.	8qqee/	.
.	8qqb/J	.
!!LO:LB:g=original
=42	=42	=42
!	!LO:TX:i:a:t=a tempo più lento	!
2e 2B 2G#\	(16g#\LL	pp
.	16b\	.
.	16ee\	.
.	16ff#\JJ	.
.	16gg#\LL	.
.	16ee\	.
.	16b\	.
.	16g#\JJ	.
2d 2A 2F#\	16f#\LL	.
.	16a\	.
.	16dd\	.
.	16ee\JJ	.
.	16ff#\LL	.
.	16dd\	.
.	16a\	.
.	16f#\JJ	.
=43	=43	=43
2c# 2G# 2E\	16e/LL	.
.	16g#/	.
.	16cc#/	.
.	16dd/JJ	.
.	16ee/LL	.
.	16cc#/	.
.	16g#/	.
.	16e/JJ	.
2B 2E\	16dT/LL	.
.	16c#/	.
.	16d/)	.
!	!LO:TX:i:a:t=rallent.	!
.	16e'/JJ	.
.	16f#'/LL	.
.	16g#'/	.
.	16a'/	.
.	16b'/JJ	.
!!LO:PB:g=original
=44	=44	=44
*	*^	*
.	.	(8qa/	pp
!LO:TX:i:a:t=a tempo	!	!	!
8A'\L	2cc#tt/	2a\)	.
8A'\	.	.	.
8A'\	.	.	.
8A'\J	.	.	.
.	16qqb/LL	.	.
.	16qqcc#/JJ	.	.
8A\L	4ddTT/	4b\	.
8A\	.	.	.
.	16qqcc#/LL	.	.
.	16qqdd/JJ	.	.
8A\	4eeTT/	4cc#\	.
8A\J	.	.	.
.	16qqdd#X/LL	.	.
.	16qqee/JJ	.	.
=45	=45	=45	=45
8A\L	4r	2ee#X 2cc#\	.
8A\	.	.	.
!	!	!	!LO:DY:a
8A\	(<(16aa/LL	.	ppp
.	16gg#/	.	.
8A\J	16aa'/)	.	.
.	16gg#'/JJ	.	.
8A\L	8aa/	8ff# 8dd\)	.
8A\J	8r	8ryy	.
(16A\LL	4r	4ryy	.
16G#\	.	.	.
16A\)	.	.	.
16A'\JJ	.	.	.
=46	=46	=46	=46
8A\L	2bTT/	2g#\	.
8A\	.	.	.
8A\	.	.	.
8A\J	.	.	.
.	16qqa/LL	.	.
.	16qqb/JJ	.	.
8A\L	4cc#tt/	4a\	.
8A\	.	.	.
.	16qqb/LL	.	.
.	16qqcc#/JJ	.	.
8A\	4ddTT/	4b\	.
8A\J	.	.	.
.	16qqcc#/LL	.	.
.	16qqdd/JJ	.	.
!!LO:LB:g=original
=47	=47	=47	=47
*^	*	*	*
2ryy	8A\L	[4dd#X/	2b\	.
.	8A\	.	.	.
.	8A\	16dd#/LL]	.	.
.	.	16ee/	.	.
.	8A\J	16ff#/	.	.
.	.	16ee/JJ	.	.
8ryy	8A'\L	8cc#/	8cc#\	.
8ryy	8e'\	8r	8ryy	.
(16e/LL	8c#\	8.r	4ryy	.
16d#X/	.	.	.	.
16e/)	8A\J	.	.	.
16e'/JJ	.	16ee\	.	.
*v	*v	*	*	*
*	*v	*v	*
=48	=48	=48
8E\L	(4.ee\	.
8e\	.	.
8dn 8B\	.	.
!	!LO:N:vis=16	!
8e\J	32dd\LLL	.
!	!LO:N:vis=16	!
.	32cc#\	.
!	!LO:N:vis=16	!
.	32b\	.
!	!LO:N:vis=16	!
.	32a\JJJ	.
8E\L	8g#/)	.
8e\	8r	.
8d 8B\	8.r	.
8e\J	.	.
.	16g#/	.
=49	=49	=49
8E\L	[8a/L	.
8e\	32a/LL]	.
.	32g#/	.
.	32b/	.
.	32a/JJJ	.
8c# 8A\	[8cc#/L	.
*	*Xtuplet	*
8e\J	40cc#/LL]	.
.	40b/	.
.	40a/	.
.	40g#/	.
.	40f#/JJJ	.
8E\L	4e/	.
8e\	.	.
8c# 8A\	8r	.
8e\J	8ee\	.
!!LO:LB:g=original
=50	=50	=50
8E\L	[2gg#^\	.
8e\	.	.
8d 8B\	.	.
8e\J	.	.
.	8qqgg#\L]	.
.	8qqff#\	.
.	8qqee\	.
.	8qqdd\	.
.	8qqcc#\	.
.	8qqb\	.
.	8qqa\J	.
8E\L	4g#/	.
8e\	.	.
8d 8B\	8.r	.
8e\J	.	.
.	16g#/	.
=51	=51	=51
8A\L	[4a/	.
8e\	.	.
.	16qqa/LL]	.
.	16qqb/	.
.	16qqa/	.
.	16qqg#/JJ	.
8c#\	8a/L	.
8e\J	8cc#/J	.
8C#\L	8e/	.
8E\	8r	.
8A\	8.a/L	.
8AJ 8E\	.	.
.	16g#/Jk	.
=52	=52	=52
8AL 8D\	[2f#/	.
8A 8D\	.	.
8A 8D\	.	.
8AJ 8D\	.	.
8BB/	16f#/LL]	.
.	16g#/	.
8dL 8B\	16a/	.
.	16b/JJ	.
8d 8B\	16cc#\LL	.
.	16dd\	.
8dJ 8B\	16ee\	.
.	16ff#\JJ	.
!!LO:LB:g=original
=53	=53	=53
8dL 8B 8E\	(4ff#\	.
8d 8B 8E\	.	.
.	8qg#/	.
8d 8B 8E\	[4g#/)	.
8dJ 8B 8E\	.	.
8C#/	16g#\LL]	.
.	16a\	.
8eL 8c#\	16b\	.
.	16cc#\JJ	.
8e 8c#\	16dd\LL	.
.	16ee\	.
8eJ 8c#\	16ff#\	.
.	16gg#\JJ	.
=54	=54	=54
8c#L 8A 8F#\	8aa'\	.
8c# 8A 8F#\	(16aa\LL	.
.	16gg#\JJ)	.
8c# 8A 8F#\	8ff#'\	.
8c#J 8A 8F#\	(16ff#\LL	.
.	16ee\JJ)	.
8dL 8B\	16dd\LL	.
.	16cc#\	.
8dJ 8B\	16b\	.
.	16a\JJ	.
8BL 8E\	16g#/LL	.
.	16f#/	.
8G#J 8E\	16e/	.
.	16d/JJ	.
=55	=55	=55
(16AA\LL	8c#'/L	.
16E\	.	.
16D#X\	8e'/J	.
16E\JJ	.	.
16F#\LL	8r	.
16E\	.	.
16D#\	8e/	.
16E\JJ)	.	.
!	!	!LO:HP:b:t=cre-scen-do:ext2=ud
(16AA\LL	(4cc# (4e/	<
16A\	.	.
16G#\	.	.
16A\JJ)	.	.
(16AA/LL	8.ddnL 8.f#/))	.
16E/	.	.
16AA/	.	.
16E/JJ)	16g#Jk 16d/	.
!!LO:LB:g=original
=56	=56	=56
(16AA\LL	4a 4c#/	.
16E\	.	.
16D#X\	.	.
16E\JJ	.	.
16F#\LL	8r	.
16E\	.	.
16D#\	8cc# 8a'/	.
16E\JJ)	.	.
(16AA\LL	(4ee 4cc#t\	.
16A\	.	.
16G#\	.	.
16A\JJ)	.	.
.	16qqddXLL 16qqb/	.
.	16qqeeJJ 16qqcc#/	.
(16AA\LL	8ff#L 8dd'\)	[
16A\	.	.
16AA\	8ddJ 8b\	.
16A\JJ)	.	.
=57	=57	=57
*	*^	*
8AA\L	(4.aa/	8cc#L 8a\	f
8A 8E 8AA'\	.	8ee 8cc# 8a\	.
8AJ 8E 8AA'\	.	8eeJ 8cc# 8a\	.
8r	16ccc#/LL	8ryy	.
.	16bb/JJ	.	.
2r	16aa/LL	2ryy	.
.	16gg#/	.	.
.	16ff#/	.	.
.	16ee/JJ	.	.
.	16dd/LL	.	.
.	16cc#/	.	.
.	16b/	.	.
.	16a/JJ)	.	.
!!LO:PB:g=original
=58	=58	=58	=58
8r	8g#/L	8r	.
(8D#X\L	8f#/J	8B#XL 8A\	.
8E\J)	8r	8c#J 8A\	.
8c# 8A 8E\	(16e/LL	4ryy	.
.	16f#/JJ	.	.
8E'\L	16g#/LL	.	.
.	16a/	.	.
8dnJ 8B'\	16bn/	4ryy	.
.	16cc#/JJ	.	.
8E'\L	16dd\LL	.	.
.	16ee\	.	.
8BJ 8G#'\	16ff#\	8ryy	.
.	16ee\JJ)	.	.
=59	=59	=59	=59
*^	*	*	*
!	!	!LO:TX:i:b:t=scherz.	!	!
(2e/	16A\LL	16cc#'\LL	2ryy	p
.	16c#'>\	16ee'\	.	.
.	16B#X'>\	16dd#X'\	.	.
.	16c#'>\JJ	16ee'\JJ	.	.
.	16A'>\LL	16cc#'\LL	.	.
.	16c#'>\	16ee'\	.	.
.	16B#'>\	16dd#'\	.	.
.	16c#'>\JJ	16ee'\JJ	.	.
!	!	!LO:TX:i:a:t=leggiero	!	!
16e 16A'\)	2ryy	(16cc#/LL	16cc#\	.
16r	.	16ee/	16r	.
8r	.	16dd#/	8r	.
.	.	16ee/JJ	.	.
4r	.	16dd#/LL	4r	.
.	.	16ee/	.	.
.	.	16ff#/	.	.
.	.	16ee/JJ)	.	.
!!LO:LB:g=original
=60	=60	=60	=60	=60
(2e/	16G#\LL	16ddn/	16dd\LL	.
.	16B\	16rccc	16dd'>\	.
.	16A#X\	8rccc	16cc#'>\	.
.	16B\JJ	.	16dd'>\JJ	.
.	16G#\LL	4ryy	16b'\LL	.
.	16B\	.	16dd'\	.
.	16A#\	.	16cc#'\	.
.	16B\JJ	.	16dd'\JJ	.
16e 16G#\)	2ryy	(16b/LL	16b\	.
16r	.	16dd/	16r	.
8r	.	16cc#/	8r	.
.	.	16dd/JJ	.	.
4r	.	16cc#/LL	4r	.
.	.	16dd/	.	.
.	.	16ee/	.	.
.	.	16dd/JJ)	.	.
*v	*v	*	*	*
=61	=61	=61	=61
16c#LL 16A'\	16cc#/	16cc#\LL	.
16e'\	16r	16cc#'\	.
16d#X'\	8r	16b#X'\	.
16e'\JJ	.	16cc#'\JJ	.
16c#'\LL	4r	16a'\LL	.
16e'\	.	16cc#'\	.
16d#'\	.	16b#'\	.
16e'\JJ	.	16cc#'\JJ	.
16c#\	(16cc#/LL	16a\	.
16r	16ee/	16r	.
8r	16dd#X/	8r	.
.	16ee/JJ	.	.
4r	16aa/LL	4r	.
.	16gg#/	.	.
.	16ff#/	.	.
.	16ee/JJ)	.	.
!!LO:LB:g=original
=62	=62	=62	=62
16BLL 16E'\	16ddn/	16dd\LL	.
16d'\	16rccc	16b'>\	.
16c#'\	8rccc	16a#X'>\	.
16d'\JJ	.	16b'>\JJ	.
16B'\LL	4rgg	16g#'>\LL	.
16d'\	.	16b'>\	.
16c#'\	.	16a#'>\	.
16d'\JJ	.	16b'>\JJ	.
16B\	(16g#/LL	16g#\	.
16r	16b/	16r	.
8r	16ee/	8r	.
.	16gg#/JJ	.	.
4r	16bb/LL	4r	.
.	16gg#/	.	.
.	16ee/	.	.
.	16dd/JJ)	.	.
=63	=63	=63	=63
16A\LL	16cc#/	16cc#\LL	f
16e\	16r	16ee\	.
16c#\	8r	16cc#\	.
16B\JJ	.	16b\JJ	.
16A\LL	8r	16a\LL	.
16G#\	.	16g#\	.
16F#\	8ee/	16f#\	.
16E\JJ	.	16e\JJ	.
(16D^\LL	4.gg#/	8eeL 8b 8g#\	.
16E\	.	.	.
16D#X\	.	8ee 8b 8g#\	.
16E\JJ	.	.	.
16Dn\LL	.	8ee 8b 8g#\	.
16E\	.	.	.
16D#X\	8ee/	8bJ 8g#\	.
16E\JJ)	.	.	.
!!LO:LB:g=original
=64	=64	=64	=64
(16C#\LL	4.aa^^/	8eeL 8a\	.
16E\	.	.	.
16D#X\	.	8ee 8a\	.
16E\JJ	.	.	.
16C#\LL	.	8ee 8a\	.
16E\	.	.	.
16D#\	8ee/	8a\J	.
16E\JJ)	.	.	.
(16Dn\LL	4.gg#^^/	8eeL 8b 8g#\	.
16E\	.	.	.
16D#X\	.	8ee 8b 8g#\	.
16E\JJ	.	.	.
16Dn\LL	.	8ee 8b 8g#\	.
16E\	.	.	.
16D#X\	8ee/	8bJ 8g#\	.
16E\JJ)	.	.	.
=65	=65	=65	=65
*^	*	*	*
8C#/	2ryy	8aa/L	8ee 8a\	.
8r	.	8eeJ 8cc# 8a/	8ryy	.
8AL 8E 8C#\	.	[4ggn [4ee [4a^^\	4ryy	.
8AJ 8E 8C#\	.	.	.	.
8A/L	2E 2C#\	16gg]LL 16ee] 16a\]	2ryy	.
.	.	16ff# 16dd\	.	.
8A/	.	16ee 16cc#\	.	.
.	.	16ddJJ 16b\	.	.
8A/	.	16cc#LL 16a/	.	.
.	.	16b 16gn/	.	.
8A/J	.	16a 16f#/	.	.
.	.	16gJJ 16e/	.	.
*	*	*v	*v	*
!!LO:LB:g=original
=66	=66	=66	=66
*	*tremolo	*	*
8A/L	(8D\L	8f# 8d/	.
8A/	8D\	4a 4f#/	.
8A/	8D\	.	.
8A/J	8D\J	4dd 4f#/	.
8A/	8D\L	.	.
8A/L	8D\	8ff#L 8dd 8a'\	.
8A/	8D\	8aa 8dd 8a'\	.
8A/J	8D\J)	8ff#J 8dd 8a'\	.
*	*Xtremolo	*	*
*v	*v	*	*
=67	=67	=67
(16E\LL	(4.ee 4.cc#^\	.
16A\	.	.
16c#\	.	.
16e\JJ	.	.
8E\L)	.	.
8e\J	8cc# 8a\	.
8E\L	8eeL 8g#\	.
8e\	8dd 8b\	.
8E\	8cc# 8a\	.
8dJ 8E#X\	8bJ 8g#\)	.
=68	=68	=68
*	*^	*
8c# 8F#\	8a 8f#/	8ryy	.
8GnL 8GGn/	4aa/	(8cc#L 8a\	.
8F# 8FF#/	.	8dd 8b\)	.
8EnJ 8EE/	4aa/	8eeJ 8cc#\	.
8DL 8DD/	.	8ff#L 8dd\	.
8C# 8CC#/	4aa/	8ee 8a\	.
8BB#X 8BBB#X/	.	8dd#X 8a\	.
8C#J 8CC#/	8aa/	8eeJ 8a\	.
*	*v	*v	*
!!LO:PB:g=original
=69	=69	=69
16DD/LL	(4.gg#: 4.ee#X: 4.b:\	sf
16D/	.	.
16DD/	.	.
16D/JJ	.	.
16DD/LL	.	.
16D/	.	.
16DD/	8ff# 8dd 8a\	.
16D/JJ	.	.
(16AAA#X/LL	8eenL 8cc# 8gn/	.
16AA#X/	.	.
16BBB/	8dd 8b 8f#/	.
16BB/JJ	.	.
16CC#/LL	8cc# 8a 8g#X 8e/	.
16C#/	.	.
16DD/	8bJ 8f# 8d/)	.
16D/JJ)	.	.
=70	=70	=70
.	8qe/	.
8EE\L	(4ee^\	.
16c#L 16A 16E\	.	.
16c#JJ 16A 16E\	.	.
8c# 8A 8E\	16dd\LL	.
.	16cc#\	.
8r	16b\	.
.	16a\JJ)	.
8EE\L	(4aa^\	.
16c#L 16A 16E\	.	.
16c#JJ 16A 16E\	.	.
8c# 8A 8E\	16gg#\LL	.
.	16ff#\	.
8r	16ee\	.
.	16dd\JJ)	.
*clefG2	*	*
!!LO:LB:g=original
=71	=71	=71
8a'\L	8cc#'\L	.
16b'\L	16dd'\L	.
16cc#'\JJ	16ee'\JJ	.
16dd'\LL	16ff#'\LL	.
16ee'\	16gg#'\	.
16ff#'\	16aa'\	.
16gg#'\JJ	16bb'\JJ	.
8aa'\L	8ccc#'\L	.
8ee'\	8aa'\	.
8cc#'\	8ee'\	.
8a'\J	8cc#'\J	.
*clefF4	*	*
=72	=72	=72
*	*^	*
8r	2ff# 2f#/	8r	f
16ELL 16EE/	.	16ddLL 16b 16g#\	.
16EJJ 16EE/	.	16ddJJ 16b 16g#\	.
8EL 8EE/	.	8ddL 8b 8g#\	.
8EJ 8EE/	.	8ddJ 8b 8g#\	.
8E 8EE/	4.ee 4.e;/	8dd 8b 8g#\	.
8r	.	8rb	.
4r;	.	4rb	.
.	8ee 8e/	.	.
*	*v	*v	*
!!LO:LB:g=original
=73	=73	=73
*ped	*	*
8AA 8AAA/	4aa 4ee 4cc# 4a\	ff
16c#LL 16A\	.	.
16e\JJ	.	.
16c#LL 16A\	(16bb\LL	.
16e\	16aa\	.
16c# 16A\	16gg#\	.
16e\JJ	16aa\JJ	.
16c#LL 16A\	8ccc#\L)	.
16e\	.	.
16c# 16A\	8aa\	.
16e\JJ	.	.
16c#LL 16A\	8ee\	.
16e\	.	.
16c# 16A\	8cc#\J	.
*Xped	*	*
16e\JJ	.	.
=74	=74	=74
16BLL 16G#\	(16ee^\LL	.
16e\	16dd\	.
16E\	16cc#\	.
16e\JJ	16dd\JJ	.
16BLL 16G#\	4b\)	.
16e\	.	.
16E\	.	.
16e\JJ	.	.
16BLL 16G#\	(16ee^\LL	.
16e\	16dd\	.
16E\	16b\	.
16e\JJ	16cc#\JJ	.
16B\LL	16dd\LL	.
16e\	16ee\	.
16E\	16ff#\	.
16e\JJ	16gg#\JJ)	.
!!LO:LB:g=original
=75	=75	=75
16c#LL 16A\	4aa 4ee 4cc# 4a\	.
16e\	.	.
16c# 16A\	.	.
16e\JJ	.	.
16c#LL 16A\	(16bb\LL	.
16e\	16aa\	.
16c# 16A\	16gg#\	.
16e\JJ	16aa\JJ)	.
16c#LL 16A\	8ccc#\L	.
16e\	.	.
16c# 16A\	8aa\	.
16e\JJ	.	.
16c#LL 16A\	8ee\	.
16e\	.	.
16c# 16A\	8cc#\J	.
16e\JJ	.	.
=76	=76	=76
16BLL 16G#\	(16ee^\LL	.
16e\	16dd\	.
16E\	16cc#\	.
16e\JJ	16dd\JJ	.
16BLL 16G#\	4b\)	.
16e\	.	.
16E\	.	.
16e\JJ	.	.
16BLL 16G#\	(16ee^\LL	.
16e\	16dd\	.
16E\	16b\	.
16e\JJ	16cc#\JJ	.
16BLL 16G#\	16dd\LL	.
16e\	16ee\	.
16E\	16ff#\	.
16e\JJ	16gg#\JJ)	.
!!LO:LB:g=original
=77	=77	=77
8AL 8AA\	8aaL 8a\	.
16BB\L	16b\L	.
16C#\JJ	16cc#\JJ	.
16D\LL	16dd\LL	.
16E\	16ee\	.
16F#\	16ff#\	.
16G#\JJ	16gg#\JJ	.
8A'\L	8aa'\L	.
8c#'\	8ccc#'\	.
8e'\	8eee'\	.
8A'\J	8a'\J	.
=78	=78	=78
8f#'\	8ff#'\	.
8r	8r	.
4D#X^\	4d#X^/	.
8E^\	8e^/	.
8r	8r	.
4E 4EE'/	4gg# 4ee 4ddn 4b'\	.
=79	=79	=79
4AA 4AAA/	4aa 4ee 4cc# 4a'\	.
4r	4r	.
2r	2r	.
==	==	==
*-	*-	*-
!!!system-decoration: {(p1)}
!!!ENC: Berenika Jozajtis
!!!END: 2022-08-21
!!!ENC: Kamil Watkowski
!!!END: 2022-09-28
!!!RDF**kern: > = above
!!!RDF**kern: < = below
!!!YEC: Copyright 2022 Narodowy Instytut Fryderyka Chopina (https://polishscores.org)
!!!YEM: License CC-BY-4.0 (https://creativecommons.org/licenses/by/4.0)
